X:181
T:Tom Billy's                                                                                       
M:C|                                                                                                
L:1/8                                                                                               
K:D                                                                                                 
d3 A BAFB|AFFF EFDE|F2 AF G2 BG|ABde fede|                                                          
d3 A BAFB| AFFF EFDE|F2 AF G2 BG|ABde fedc|                                                         
d3 A BAFB|AFFF EFDE| F2 AF G2 BG|ABde fedg|                                                         
fedf edBc|dBAF EFDE|F2 AF G2 BG| ABde fede||                                                        
|:faab afdf|g2 fg edBd|faab afdB|ABde fede|                                                         
faab afdf|g2 fg edBA|F2 AF G2 BG|ABde fd d2 :|
